pk/ticket.svg

<svg viewBox="0 0 48 48" fill="none" xmlns="http://www.w3.org/2000/svg" height="1em" width="1em">
  <path d="M9.00013 16.0001L34 6.00008L38.0004 16.0001" stroke="black" stroke-width="4" stroke-linecap="round" stroke-linejoin="round"/>
  <path d="M4 16H44V22C41 22 38 24 38 27.5C38 31 41 34 44 34V40H4V34C7.00016 34 10 32 10 28C10 24 7 22 4 22V16Z" fill="#2F88FF" stroke="black" stroke-width="4" stroke-linecap="round" stroke-linejoin="round"/>
  <path d="M17 25.3848H23" stroke="white" stroke-width="4" stroke-linecap="round"/>
  <path d="M17 31.3848H31" stroke="white" stroke-width="4" stroke-linecap="round"/>
</svg>

<svg viewBox="0 0 48 48" fill="none" xmlns="http://www.w3.org/2000/svg" height="1em" width="1em">
  <path d="M9 16 34 6l4 10" stroke="#000" stroke-width="4" stroke-linecap="round" stroke-linejoin="round"/>
  <path d="M4 16h40v6c-3 0-6 2-6 5.5s3 6.5 6 6.5v6H4v-6c3 0 6-2 6-6s-3-6-6-6v-6Z" fill="#2F88FF" stroke="#000" stroke-width="4" stroke-linecap="round" stroke-linejoin="round"/>
  <path d="M17 25.385h6m-6 6h14" stroke="#fff" stroke-width="4" stroke-linecap="round"/>
</svg>
